src/assets/miniLogo.svg

<svg fill="none" height="43" width="33" xmlns="http://www.w3.org/2000/svg"><path d="m2.67.14h2.67v2.63h-2.67zm5.35 5.26h-2.68v2.63h-2.67v10.51h-2.67v13.16h2.67v5.25h2.67v2.63h2.68v2.63h16.03v-2.63h2.67v-2.63h2.68v-2.63h2.67v-13.15h-2.67v-5.26h-2.68v-5.25h-2.67v-2.63h2.67v-2.63h-2.67v2.63h-2.67v-2.63h-2.68v-2.63h-5.35v-2.63h-2.65v5.26h2.67v2.63h-2.67v5.26h-2.68v-2.63h-2.68v-2.63h2.68z" fill="#d543ed"/><path d="m16.03 8.03h2.68v2.63h2.67v2.63h2.67v5.25h2.67v5.26h2.68v10.51h-2.68v2.63h-2.67v2.63h-13.35v-2.63h-5.36v-5.24h-2.67v-10.53h2.67v-5.26h8.02v-2.61h2.67zm-8.01 2.63h-2.68v2.63h2.68z" fill="#9250ff"/><path d="m16.04 13.29h2.67v2.62h-2.67v-2.61zm8.01 13.14v-5.26h-2.67v-5.26h-2.67v2.63h-5.35v2.63h-2.66v-2.63h-2.68v5.26h-2.67v13.14h5.34v2.63h13.36v-5.26h2.67v-7.88z" fill="#9787fc"/><g fill="#fff"><path d="m18.7 18.54h-2.67v2.63h2.68v-2.63z"/><path clip-rule="evenodd" d="m10.69 23.8v2.63h-2.67v10.51h2.67v2.63h10.69v-2.63h2.67v-10.51h-2.67v-2.63zm0 5.26h2.67v5.25h-2.66v-5.25zm10.69 5.25v-5.25h-2.68v5.25h2.67z" fill-rule="evenodd"/></g></svg>

<svg xmlns="http://www.w3.org/2000/svg" width="33" height="43" fill="none">
    <path fill="#D543ED"
        d="M2.67.14h2.67v2.63H2.67V.14ZM8.02 5.4H5.34v2.63H2.67v10.51H0V31.7h2.67v5.25h2.67v2.63h2.68v2.63h16.03v-2.63h2.67v-2.63h2.68v-2.63h2.67V21.17H29.4v-5.26h-2.68v-5.25h-2.67V8.03h2.67V5.4h-2.67v2.63h-2.67V5.4H18.7V2.77h-5.35V.14H10.7V5.4h2.67v2.63H10.7v5.26H8.02v-2.63H5.34V8.03h2.68V5.4Z" />
    <path fill="#9250FF"
        d="M16.03 8.03h2.68v2.63h2.67v2.63h2.67v5.25h2.67v5.26h2.68v10.51h-2.68v2.63h-2.67v2.63H10.7v-2.63H5.34V31.7H2.67V21.17h2.67v-5.26h8.02V13.3h2.67V8.03ZM8.02 10.66H5.34v2.63h2.68v-2.63Z" />
    <path fill="#9787FC"
        d="M16.04 13.29h2.67v2.62h-2.67V13.3ZM24.05 26.43v-5.26h-2.67v-5.26h-2.67v2.63h-5.35v2.63H10.7v-2.63H8.02v5.26H5.35v13.14h5.34v2.63h13.36v-5.26h2.67v-7.88h-2.67Z" />
    <path fill="#fff" d="M18.7 18.54h-2.67v2.63h2.68v-2.63Z" />
    <path fill="#fff" fill-rule="evenodd"
        d="M10.69 23.8v2.63H8.02v10.51h2.67v2.63h10.69v-2.63h2.67V26.43h-2.67V23.8H10.69Zm0 5.26h2.67v5.25H10.7v-5.25Zm10.69 5.25v-5.25H18.7v5.25h2.67Z"
        clip-rule="evenodd" />
</svg>
